X:1
T:Title
%%score { 1 | 2 }
L:1/8
M:6/4
K:Eb
V:1 treble nm="Grand Piano"
V:2 bass 
V:1
 z6 z4[Q:1/4=126] E>F | G2 G2 G2 G2 [B,FA]2 [EGB]2 | [EAc]2 [EBd]2 [Ece]2 [EGB]4 [B,GB]>[B,FA] | %3
 [B,EG]2 [B,EG]2 [B,FA]2 [EAc]2 [EGB]2 [B,EG]2 | [B,DF]6- [B,DF]4 E>F | G2 G2 G2 G2 A2 B2 | %6
 c2 c2 d2 e4 [Ed]>[Ec] | [EB]2 [EG]2 [EB]2 [DB]2 [DA]2 [DF]2 |[M:5/4] E2- E2- E6 |[M:1/4] B>B | %10
[M:6/4] c2 A2 A2 c4 c>c | [GB]2 [EG]2 [EG]2 [GB]4 [EB]>[EB] | [Ec]2 [Ec]2 [Ec]2 c2 B2 G2 | %13
 [DF]6- [DF]4 E>F | G2 G2 [FA]2 [GB]4 [GB]>[GB] | [EAc]2 [EAc]2 [EBd]2 [Ece]4 [EBd]>[EAc] | %16
 [EGB]2 [B,EG]2 [EB]2 [DB]2 [DA]2 [DF]2 |[M:5/4] E2- E2- E6 |] %18
V:2
 z6 z4 [E,G,]>[E,A,E] | [E,B,E]2 [E,B,E]2 [E,B,E]2 [E,B,E]2 E,2 E,2 | A,2 A,2 A,,2 E,4 E,>E, | %3
 E,2 E,2 E,2 E,2 E,2 E,2 | B,,6- B,,4 [E,G,]>[E,A,E] | %5
 [E,B,E]2 [E,B,E]2 [E,B,E]2 [E,B,E]2 [F,B,D]2 [G,B,E]2 | %6
 [A,E]2 [A,E]2 [A,B,E]2 [A,CE]4 [A,,B,]>[A,,A,] | %7
 [B,,G,]2 [B,,B,]2 [B,,G,]2 [B,,F,]2 [B,,B,]2 [B,,A,]2 |[M:5/4] [E,G,]2- [E,G,]2- [E,G,]6 | %9
[M:1/4] [E,G,E]>[E,G,E] |[M:6/4][K:treble] [A,E]2 [A,CE]2 [A,CE]2 [A,EA]4 [A,EA]>[A,EA] | %11
 [E,E]2 [E,B,]2 [E,B,]2 [E,E]4 [E,G,]>[E,G,] | %12
 [A,,A,]2 [A,,A,]2 [C,A,]2 [E,A,E]2 [E,G,E]2 [E,B,E]2 | [B,,B,]6- [B,,B,]4 [E,G,]>[E,A,E] | %14
 [E,B,E]2 [E,B,E]2 [E,B,]2 [E,E]4 [E,E]>[E,E] | A,2 A,2 A,2 A,4 A,,>A,, | %16
 B,,2 B,,2 [B,,G,]2 [B,,F,]2 [B,,B,]2 [B,,A,]2 |[M:5/4] [E,G,]2- [E,G,]2- [E,G,]6 |] %18

